svg/fluentui-system-icons/ic_fluent_phone_edit_24_filled.svg

<svg width="24" height="24" viewBox="0 0 24 24" fill="none" xmlns="http://www.w3.org/2000/svg">
<path d="M13.1974 7.57188L19.0999 1.66946C19.9925 0.776846 21.4397 0.776846 22.3323 1.66946C23.2249 2.56208 23.2249 4.00929 22.3323 4.9019L16.4299 10.8043C16.0857 11.1485 15.6545 11.3926 15.1824 11.5106L13.3517 11.9683C12.5556 12.1673 11.8344 11.4462 12.0334 10.6501L12.4911 8.81936C12.6092 8.34721 12.8533 7.91602 13.1974 7.57188ZM12.4903 6.86478L16.9857 2.36937C16.631 2.13587 16.2064 2 15.75 2H8.25C7.00736 2 6 3.00736 6 4.25V19.75C6 20.9926 7.00736 22 8.25 22H15.75C16.9926 22 18 20.9926 18 19.75V10.6483L17.1369 11.5114C16.6646 11.9837 16.0729 12.3188 15.4249 12.4808L13.5942 12.9385C12.0656 13.3206 10.6811 11.936 11.0632 10.4075L11.5209 8.57683C11.6829 7.92885 12.018 7.33707 12.4903 6.86478ZM13.25 18C13.6642 18 14 18.3358 14 18.75C14 19.1642 13.6642 19.5 13.25 19.5H10.75C10.3358 19.5 10 19.1642 10 18.75C10 18.3358 10.3358 18 10.75 18H13.25Z" fill="#212121"/>
</svg>

<svg xmlns="http://www.w3.org/2000/svg" width="24" height="24"><path d="M13.197 7.572 19.1 1.669a2.286 2.286 0 1 1 3.232 3.233l-5.902 5.902a2.685 2.685 0 0 1-1.248.707l-1.83.457a1.087 1.087 0 0 1-1.319-1.318l.458-1.83c.118-.473.362-.904.706-1.248Zm-.707-.707 4.496-4.496A2.24 2.24 0 0 0 15.75 2h-7.5A2.25 2.25 0 0 0 6 4.25v15.5A2.25 2.25 0 0 0 8.25 22h7.5A2.25 2.25 0 0 0 18 19.75v-9.102l-.863.863a3.685 3.685 0 0 1-1.712.97l-1.83.457c-1.53.383-2.914-1.002-2.532-2.53l.458-1.831c.162-.648.497-1.24.97-1.712ZM13.25 18a.75.75 0 0 1 0 1.5h-2.5a.75.75 0 0 1 0-1.5h2.5Z"/></svg>
